X:1
T:Engelska efter Ola i Skarup (Gossen i gården)
R:Engelska
O:Blekinge
N:Dansas med 2 damer och 1 herre
Z:Andy Davey, januari 2018
M:2/4
L:1/16
K:D
|: d2fe d2c2 | d2fe d2c2 | e2e2 fgge | dcBc d2 z2 :|
|: F3G A2A2 | B3c d2d2 | F3G A2A2 | BAGE D4 :|

